X:1
T:Title
%%score ( 1 2 3 ) ( 4 5 6 )
L:1/8
Q:1/4=110
M:4/4
K:Ab
V:1 treble nm="Grand Piano, Staff"
V:2 treble 
V:3 treble 
V:4 bass nm="Choir Pad, Raphael, 87.87.47"
V:5 bass 
V:6 bass 
V:1
 [CA]2 [CA]2 [DG]2 [EA]2 | F4 z4 | [DF]2 [DG]2 [CA]2 [Fd]2 | B3 A [CA]4 | [CA]2 [DA]2 [EG]2 [EA]2 | %5
w: By~Edward~John~Hopkins,~1862 * * *|||||
 [FA]2 [FB]2 [=Ec]2 [EG]2 | c3 c [EB]2 [Ge]2 | [F=d]3 [Ee] [Ee]4 | [DB]2 [CA]2 [B,G]2 E2 | %9
w: ||||
 [EF]2 [DG]2 [CA]2 [Ec]2 | [DB]4 [DB]4 | [CA]8 |] %12
w: |||
V:2
 x8 | D2 z G [CA]2 [CE]2 | x8 | E2 E2 z4 | x8 | x8 | F2 E2 z4 | x8 | x8 | x8 | x8 | x8 |] %12
V:3
 x8 | z2 D2 z4 | x8 | x8 | x8 | x8 | x8 | x8 | x8 | x8 | x8 | x8 |] %12
V:4
 [A,,E,]2 [A,,E,]2 [B,,E,]2 [C,A,]2 | [D,A,]2 [B,,B,]2 [A,,E,]2 [A,,A,]2 | %2
 [D,A,]2 [B,,B,]2 [F,A,]2 [D,A,]2 | z2 G,2 z4 | [F,A,]2 [F,A,]2 [E,B,]2 [C,A,]2 | %5
 [D,A,]2 [D,F,]2 [C,G,]2 [C,C]2 | z2 _G,2 z4 | [B,,A,]3 [E,G,] [E,G,]4 | %8
 [E,G,]2 [E,A,]2 [E,B,]2 [C,C]2 | [D,C]2 [E,B,]2 [F,A,]2 [F,=A,]2 | B,2 F,2 [E,G,]4 | [A,,A,]8 |] %12
V:5
 x8 | x8 | x8 | A,2 z E, [A,,A,]4 | x8 | x8 | F,2 z =A,, [B,,=G,]2 [B,,B,]2 | x8 | x8 | x8 | %10
 B,,4 z4 | x8 |] %12
V:6
 x8 | x8 | x8 | E,4 z4 | x8 | x8 | =A,,4 z4 | x8 | x8 | x8 | x8 | x8 |] %12

